X: 19
T:Eleanor Kanes's
M:2/2
L:1/8
C:Ed Reavy
R:reel
N:Eleanor Kane's. Eleanor lives in 
N:Chicago with her husband Jim (Neary).
N:Both are long time friends of Ed. 
N:Eleanor is one of the few pianists in
N:the tradition who play melody as well 
N:as chords. This reel is considered
N:one of Ed's top tunes.
Z:Joseph Reavy
K:G
GFGA B2 GA|Bgfg edBA|GFGA B2 EF|(3GFE (3FED EB,B,D|
GFGA (3BcB GA|Bgfgefga|(3bag (3agf gafg|ecAF GFGA|
BGFG EFGA|Bgfg edBA|GFGA B2 EF(3GFE (3GED EB,B,D|
GFGA B2 GA|Bgfg efga|(3bag (3agf gafg|ecAF GFGA||
Bdef gfga|(3bag af gfed|BGEF GFGA|Bdd^c d2 ef|
(3gfg af gedc|(3BcB Ac BGEF|GABG FGAc|(BcB AF GFGA:||
